X:38
T:The Musical Priest
S:Bernie Waugh
R:Reel
M:4/4
L:1/8
K:Bm
|:BA|\
"Bm"FB~BA B2Bd|"A"cBAf ecBA|"Bm"FB~BA B/B/BBd|"A"cBAc "Bm"B2:|
|:Bc|\
"D"d2dc dfed|"F#m"(3cBA eg faec|"G"dcBc "A"defb|"Bm"afed B2:|
|:Bc|\
"Bm"dBB/B/B bafb|"A"afec ABce|"Bm"dBB/B/B bafb|"A"afed "Bm"B2Bc|
"Bm"dBB/B/B bafb|"F#m"afec ABce|"G"dcBc defb|"A"afed "Bm"B2:|


